tools/download-figma-icons/icons/outlined-medium/money-bag-100.svg

<svg width="24" height="24" viewBox="0 0 24 24" fill="none" xmlns="http://www.w3.org/2000/svg">
<path fill-rule="evenodd" clip-rule="evenodd" d="M12.0004 22.3746C16.5034 22.3746 19.4689 21.5646 20.8151 19.9678C21.6806 18.9403 21.9409 17.5101 21.6116 15.5938C20.9561 11.7883 17.4176 9.07857 16.1396 8.21157C16.1369 8.21157 16.1344 8.21197 16.1319 8.21236C16.1297 8.21272 16.1275 8.21307 16.1254 8.21307H7.87537C7.87312 8.21307 7.87106 8.21269 7.86899 8.21232C7.86693 8.21194 7.86487 8.21157 7.86262 8.21157C6.58462 9.08157 3.04162 11.7988 2.38912 15.5946C2.05987 17.5101 2.32012 18.9403 3.18562 19.9678C4.53187 21.5646 7.49737 22.3746 12.0004 22.3746ZM12.7799 1.92943C11.856 2.15347 10.8991 2.38551 9.8636 2.38551C8.8016 2.38551 7.69535 2.19801 6.80585 1.99401L8.2136 4.46301H15.8291L17.6793 1.84926C17.3598 1.73526 16.8453 1.60776 16.0436 1.52751C14.9057 1.41514 13.8762 1.66419 12.7864 1.92785L12.7826 1.92876L12.7799 1.92943ZM7.50034 6.33804C7.50034 6.54504 7.66909 6.71304 7.87534 6.71304H16.1253C16.3316 6.71304 16.5003 6.54504 16.5003 6.33804C16.5003 6.13179 16.3316 5.96304 16.1253 5.96304H7.87534C7.66909 5.96304 7.50034 6.13179 7.50034 6.33804ZM17.6389 7.43606C19.3736 8.72981 22.4284 11.4943 23.0899 15.3396C23.4986 17.7186 23.1304 19.5478 21.9619 20.9346C20.2946 22.9131 17.0359 23.8746 12.0004 23.8746C6.96485 23.8746 3.7061 22.9131 2.03885 20.9346C0.87035 19.5478 0.5021 17.7186 0.91085 15.3403C1.57235 11.4943 4.6271 8.72981 6.36185 7.43606C6.1376 7.12706 6.00035 6.74981 6.00035 6.33806C6.00035 5.74106 6.28535 5.21531 6.7211 4.87181L4.59935 1.15256C4.4441 0.881055 4.4741 0.542055 4.67435 0.301305C4.8731 0.0620554 5.19935 -0.0294446 5.49785 0.0733054C5.49839 0.073478 5.50014 0.074073 5.50309 0.0750707C5.62806 0.117423 7.89473 0.885555 9.8636 0.885555C10.7178 0.885555 11.5444 0.685239 12.42 0.47308L12.4294 0.470805C13.5949 0.188805 14.8024 -0.102195 16.1914 0.0350554C18.5276 0.266805 19.2094 0.912555 19.4089 1.27556C19.5461 1.52681 19.5281 1.83431 19.3624 2.06906L17.3419 4.92281C17.7416 5.26706 18.0004 5.77031 18.0004 6.33806C18.0004 6.74981 17.8631 7.12706 17.6389 7.43606ZM11.254 17.2134C11.5142 17.2134 11.6282 17.1264 11.6987 17.0506C11.9732 16.7536 12.0182 16.0749 11.9957 15.7921C11.9935 15.7531 11.9935 15.7096 11.9965 15.6699C12.0182 15.3789 11.9725 14.6739 11.6905 14.3716C11.6222 14.2974 11.512 14.2134 11.2622 14.2134H11.257C10.99 14.2149 10.8722 14.3056 10.801 14.3844C10.5212 14.6919 10.4807 15.3924 10.5055 15.6646C10.5092 15.7074 10.5092 15.7509 10.5062 15.7929C10.4897 16.0149 10.51 16.7289 10.8085 17.0499C10.879 17.1264 10.9937 17.2134 11.254 17.2134ZM11.2622 12.7134C11.8765 12.7134 12.406 12.9354 12.7945 13.3546C13.5317 14.1534 13.5137 15.4096 13.4957 15.7321C13.5137 16.0494 13.5302 17.2741 12.805 18.0639C12.4142 18.4884 11.878 18.7134 11.254 18.7134C10.6307 18.7134 10.0945 18.4891 9.70372 18.0646C8.97772 17.2771 8.99047 16.0554 9.00697 15.7359C8.98672 15.4134 8.96347 14.1759 9.69097 13.3756C10.0825 12.9444 10.6217 12.7164 11.251 12.7134H11.2622ZM16.504 17.2134C16.7642 17.2134 16.8782 17.1264 16.9487 17.0506C17.2232 16.7536 17.2682 16.0749 17.2457 15.7921C17.2435 15.7531 17.2435 15.7096 17.2465 15.6699C17.2682 15.3789 17.2225 14.6739 16.9405 14.3716C16.8722 14.2974 16.762 14.2134 16.5122 14.2134H16.507C16.24 14.2149 16.1222 14.3056 16.051 14.3844C15.7712 14.6919 15.7307 15.3924 15.7555 15.6646C15.7592 15.7074 15.7592 15.7509 15.7562 15.7929C15.7397 16.0149 15.76 16.7289 16.0585 17.0499C16.129 17.1264 16.2437 17.2134 16.504 17.2134ZM16.5122 12.7134C17.1265 12.7134 17.656 12.9354 18.0445 13.3546C18.7817 14.1534 18.7637 15.4096 18.7457 15.7321C18.7637 16.0494 18.7802 17.2741 18.055 18.0639C17.6642 18.4884 17.128 18.7134 16.504 18.7134C15.8807 18.7134 15.3445 18.4891 14.9537 18.0646C14.2277 17.2771 14.2405 16.0554 14.257 15.7359C14.2367 15.4134 14.2135 14.1759 14.941 13.3756C15.3325 12.9444 15.8717 12.7164 16.501 12.7134H16.5122ZM7.80806 12.7791C7.53806 12.6591 7.22381 12.7056 7.00331 12.9021L5.50331 14.2319C5.19281 14.5071 5.16506 14.9811 5.43956 15.2909C5.71406 15.6021 6.18806 15.6284 6.49781 15.3546L6.75056 15.1311V17.9631C6.75056 18.3779 7.08581 18.7131 7.50056 18.7131C7.91531 18.7131 8.25056 18.3779 8.25056 17.9631V13.4631C8.25056 13.1684 8.07731 12.8999 7.80806 12.7791Z" fill="black"/>
</svg>

<svg width="24" height="24" viewBox="0 0 24 24" fill="none" xmlns="http://www.w3.org/2000/svg"><path fill-rule="evenodd" clip-rule="evenodd" d="M12 22.375c4.503 0 7.469-.81 8.815-2.407.866-1.028 1.126-2.458.797-4.374-.656-3.806-4.194-6.515-5.472-7.382h-.008l-.007.001H7.87l-.006-.001c-1.278.87-4.821 3.587-5.474 7.383-.33 1.915-.069 3.345.797 4.373 1.346 1.597 4.311 2.407 8.814 2.407Zm.78-20.446c-.924.224-1.88.457-2.916.457-1.062 0-2.169-.188-3.058-.392l1.408 2.469h7.615l1.85-2.614c-.32-.114-.834-.241-1.635-.321-1.138-.113-2.168.136-3.258.4h-.003l-.003.001ZM7.5 6.338c0 .207.17.375.375.375h8.25a.376.376 0 0 0 0-.75h-8.25a.376.376 0 0 0-.375.375Zm10.14 1.098c1.735 1.294 4.79 4.058 5.45 7.904.41 2.379.041 4.208-1.127 5.595-1.667 1.978-4.926 2.94-9.962 2.94-5.035 0-8.294-.962-9.961-2.94C.87 19.548.502 17.719.91 15.34c.661-3.846 3.716-6.61 5.45-7.904A1.862 1.862 0 0 1 6 6.338c0-.597.284-1.123.72-1.466L4.6 1.152A.75.75 0 0 1 5.498.074l.005.002c.125.042 2.392.81 4.36.81.855 0 1.681-.2 2.557-.412l.01-.002c1.165-.282 2.372-.573 3.761-.436 2.337.232 3.018.878 3.218 1.24a.751.751 0 0 1-.047.794l-2.02 2.854c.4.344.658.847.658 1.415 0 .412-.137.79-.361 1.098Zm-6.385 9.777c.26 0 .374-.087.445-.162.274-.297.32-.976.297-1.259a.96.96 0 0 1 0-.122c.022-.291-.024-.996-.306-1.298-.068-.075-.178-.159-.428-.159h-.005c-.267.002-.385.093-.456.171-.28.308-.32 1.008-.296 1.28a.82.82 0 0 1 .001.129c-.016.222.004.936.303 1.257.07.076.185.163.445.163Zm.008-4.5c.614 0 1.144.222 1.532.642.738.798.72 2.055.702 2.377.018.317.034 1.542-.691 2.332-.39.424-.927.65-1.551.65-.623 0-1.16-.225-1.55-.65-.726-.787-.714-2.009-.697-2.328-.02-.323-.044-1.56.684-2.36.391-.432.93-.66 1.56-.663h.011Zm5.242 4.5c.26 0 .374-.087.445-.162.274-.297.32-.976.297-1.259a.96.96 0 0 1 0-.122c.022-.291-.023-.996-.305-1.298-.069-.075-.179-.159-.429-.159h-.005c-.267.002-.385.093-.456.171-.28.308-.32 1.008-.295 1.28a.82.82 0 0 1 0 .129c-.016.222.004.936.302 1.257.071.076.186.163.446.163Zm.008-4.5c.614 0 1.144.222 1.532.642.738.798.72 2.055.702 2.377.018.317.034 1.542-.691 2.332-.39.424-.927.65-1.551.65-.623 0-1.16-.225-1.55-.65-.726-.787-.713-2.009-.697-2.328-.02-.323-.043-1.56.684-2.36.391-.432.93-.66 1.56-.663h.011Zm-8.704.066a.75.75 0 0 0-.805.123l-1.5 1.33a.75.75 0 0 0 .995 1.123l.253-.224v2.832a.75.75 0 1 0 1.5 0v-4.5a.75.75 0 0 0-.443-.684Z" fill="currentColor"/></svg>
